src/static/logos/fleep.svg

<?xml version="1.0" encoding="UTF-8" standalone="no"?>
<svg width="256px" height="291px" viewBox="0 0 256 291" version="1.1" xmlns="http://www.w3.org/2000/svg" xmlns:xlink="http://www.w3.org/1999/xlink" preserveAspectRatio="xMidYMid">
	<g>
		<path d="M13.6260812,255.829674 C6.13173653,255.829674 0,249.697937 0,242.203593 L0,13.9667332 L0,13.6260812 C0,6.13173653 6.13173653,0 13.6260812,0 L242.033267,0 C249.697937,0 256,6.30206254 256,13.9667332 L256,242.373919 C256,249.868263 249.868263,256 242.373919,256 L242.033267,256 L182.07851,256 L181.567532,255.318696 L142.051896,289.383899 C141.370592,289.894877 140.518962,290.235529 139.497006,290.235529 C137.62342,290.235529 136.090486,288.702595 136.090486,286.829009 L136.090486,255.829674 L135.749834,255.829674 L13.6260812,255.829674 L13.6260812,255.829674 Z" fill="#36A7A6"></path>
		<path d="M120.101929,183.741276 L136.791302,183.741276 L136.791302,213.203129 L66.6278146,213.203129 L66.6278146,183.741276 L83.3171879,183.741276 L83.3171879,70.3216576 L66.6278146,70.3216576 L66.6278146,40.5192053 L191.627815,40.5192053 L191.627815,87.0110309 L161.655063,87.0110309 L161.655063,70.3216576 L120.442528,70.3216576 L120.101929,70.3216576 L120.101929,111.874791 L161.655063,111.874791 L161.655063,142.188143 L120.101929,142.188143 L120.101929,183.741276 Z" fill="#FFFFFF"></path>
	</g>
</svg>

<svg width="256" height="291" xmlns="http://www.w3.org/2000/svg" preserveAspectRatio="xMidYMid"><path d="M13.626 255.83C6.132 255.83 0 249.698 0 242.204V13.627C0 6.131 6.132 0 13.626 0h228.407C249.698 0 256 6.302 256 13.967v228.407c0 7.494-6.132 13.626-13.626 13.626h-60.295l-.511-.681-39.516 34.065a4.184 4.184 0 01-2.555.852 3.417 3.417 0 01-3.407-3.407v-31H13.626z" fill="#36A7A6"/><path d="M120.102 183.741h16.69v29.462H66.627v-29.462h16.69V70.321h-16.69V40.52h125v46.492h-29.973v-16.69h-41.552v41.554h41.553v30.313h-41.553v41.553z" fill="#FFF"/></svg>
